....................................................................................................
....................................................................................................
.......................................O...O.......................................O...O............
.........OOO...OOO.....................O...O.........OOO...OOO.....................O...O............
.......................................O...O.......................................O...O............
.......O....O.O....O..................OO...OO......O....O.O....O..................OO...OO...........
.......O....O.O....O.....O..O........O.O...O.O.....O....O.O....O.....O..O........O.O...O.O..........
.......O....O.O....O.....O..O.....OOOOO.....OOOOO..O....O.O....O.....O..O.....OOOOO.....OOOOO.......
.........OOO...OOO......OO..OO.......................OOO...OOO......OO..OO..........................
......................OOO....OOO..................................OOO....OOO........................
.........OOO...OOO...................................OOO...OOO......................................
.......O....O.O....O..............OOOOO.....OOOOO..O....O.O....O..............OOOOO.....OOOOO.......
.......O....O.O....O..OOO....OOO.....O.O...O.O.....O....O.O....O..OOO....OOO.....O.O...O.O..........
.......O....O.O....O....OO..OO........OO...OO......O....O.O....O....OO..OO........OO...OO...........
.........................O..O..........O...O.........................O..O..........O...O............
.........OOO...OOO.......O..O..........O...O.........OOO...OOO.......O..O..........O...O............
.......................................O...O.......................................O...O............
....................................................................................................
....................................................................................................
..............................................OOO...OOO.............................................
....................................................................................................
............................................O....O.O....O...........................................
............................................O....O.O....O...........................................
............................................O....O.O....O...........................................
..............................................OOO...OOO.............................................
....................................................................................................
............................................OOO.......OOO...........................................
......................................OOO..O....O...O....O..OOO.....................................
...........................................O....O...O....O..........................................
....................................O....O.O....O...O....O.O....O...................................
....................................O....O.................O....O...................................
....................................O....O..OOO.......OOO..O....O...................................
......................................OOO...................OOO.....................................
....................................................................................................
....................................OOO.......................OOO...................................
..............................OOO..O....O...................O....O..OOO.............................
...................................O....O...................O....O..................................
............................O....O.O....O...................O....O.O....O...........................
............................O....O.................................O....O...........................
............................O....O..OOO.......................OOO..O....O...........................
..............................OOO...................................OOO.............................
................................................OO..................................................
............................OOO................OO.....................OOO...........................
......................OOO..O....O..............OO...OOO.............O....O..OOO.....................
...........................O....O..............O....................O....O..........................
....................O....O.O....O...........O....O.O................O....O.O....O...................
....................O....O..................O....O.O...OOO.................O....O...................
....................O....O..OOO.............O....O.O....OOO...........OOO..O....O...................
......................OOO.....................OOO...OOO...O.................OOO.....................
....................................................................................................
......................OOO.................O...OOO...OOO.....................OOO.....................
....................O....O..OOO...........OOO....O.O....O.............OOO..O....O...................
....................O....O.................OOO...O.O....O..................O....O...................
....................O....O.O....O................O.O....O...........O....O.O....O...................
...........................O....O....................O..............O....O..........................
......................OOO..O....O.............OOO...OO..............O....O..OOO.....................
............................OOO.....................OO................OOO...........................
...................................................OO...............................................
..............................OOO...................................OOO.............................
............................O....O..OOO.......................OOO..O....O...........................
............................O....O.................................O....O...........................
............................O....O.O....O...................O....O.O....O...........................
...................................O....O...................O....O..................................
..............................OOO..O....O...................O....O..OOO.............................
....................................OOO.......................OOO...................................
....................................................................................................
......................................OOO...................OOO.....................................
....................................O....O..OOO.......OOO..O....O...................................
....................................O....O.................O....O...................................
....................................O....O.O....O...O....O.O....O...................................
...........................................O....O...O....O..........................................
......................................OOO..O....O...O....O..OOO.....................................
............................................OOO.......OOO...........................................
....................................................................................................
..............................................OOO...OOO.............................................
............................................O....O.O....O...........................................
............................................O....O.O....O...........................................
............................................O....O.O....O...........................................
....................................................................................................
..............................................OOO...OOO.............................................
....................................................................................................
....................................................................................................
....................................................................................................
.......................................O...O.......................................O...O............
.........OOO...OOO.....................O...O.........OOO...OOO.....................O...O............
.......................................O...O.......................................O...O............
.......O....O.O....O..................OO...OO......O....O.O....O..................OO...OO...........
.......O....O.O....O.....O..O........O.O...O.O.....O....O.O....O.....O..O........O.O...O.O..........
.......O....O.O....O.....O..O.....OOOOO.....OOOOO..O....O.O....O.....O..O.....OOOOO.....OOOOO.......
.........OOO...OOO......OO..OO.......................OOO...OOO......OO..OO..........................
......................OOO....OOO..................................OOO....OOO........................
.........OOO...OOO...................................OOO...OOO......................................
.......O....O.O....O..............OOOOO.....OOOOO..O....O.O....O..............OOOOO.....OOOOO.......
.......O....O.O....O..OOO....OOO.....O.O...O.O.....O....O.O....O..OOO....OOO.....O.O...O.O..........
.......O....O.O....O....OO..OO........OO...OO......O....O.O....O....OO..OO........OO...OO...........
.........................O..O..........O...O.........................O..O..........O...O............
.........OOO...OOO.......O..O..........O...O.........OOO...OOO.......O..O..........O...O............
.......................................O...O.......................................O...O............
....................................................................................................
....................................................................................................